src/images/pages/resources/contract-guide.svg

<svg xmlns="http://www.w3.org/2000/svg" viewBox="0 0 200 200"><path fill="#F3F2F2" d="M1 1h198v198h-198z"/><path fill="#CDCCCB" d="M198 2v196h-196v-196h196m2-2h-200v200h200v-200z"/><g stroke="#CDCCCB" stroke-width="2" fill="none"><path d="M25.961 200v-200M55.576 200v-200M85.192 200v-200M114.808 200v-200M144.423 200v-200M174.039 200v-200"/></g><g stroke="#CDCCCB" stroke-width="2" fill="none"><path d="M0 25.961h200M0 55.576h200M0 85.192h200M0 114.808h200M0 144.423h200M0 174.039h200"/></g><g fill="#232D61"><path d="M61.653 123.828l28.883-23.828-28.883-23.828v13.506h-23.59v20.64h23.59zM138.347 123.828l-28.881-23.828 28.881-23.828v13.506h23.59v20.64h-23.59zM76.172 61.653l23.828 28.883 23.828-28.883h-13.507v-23.59h-20.639v23.59zM76.172 138.347l23.828-28.884 23.828 28.884h-13.507v23.59h-20.639v-23.59z"/></g><path fill="#E78026" d="M93.084 59.689l106.916 86.999v-9.917l-106.751-86.866-22.072 16.758-71.177-24.665v8.142l72.552 25.14zM101.116 92.978l-14.81 16.456h-77.449l-8.857 7.909v10.313l11.794-10.53h77.937l12.882-14.313 97.387 57.847v-8.947z"/></svg>

<svg xmlns="http://www.w3.org/2000/svg" viewBox="0 0 200 200"><path fill="#F3F2F2" d="M1 1h198v198H1z"/><path fill="#CDCCCB" d="M198 2v196H2V2h196m2-2H0v200h200V0z"/><path d="M25.96 200V0m29.616 200V0m29.616 200V0m29.616 200V0m29.615 200V0m29.616 200V0M0 25.96h200M0 55.577h200M0 85.192h200M0 114.808h200M0 144.423h200M0 174.04h200" stroke="#CDCCCB" stroke-width="2" fill="none"/><path d="M61.653 123.828L90.536 100 61.653 76.172v13.506h-23.59v20.64h23.59zm76.694 0L109.467 100l28.88-23.828v13.506h23.59v20.64h-23.59zM76.172 61.653L100 90.536l23.828-28.883H110.32v-23.59H89.683v23.59zm0 76.694L100 109.463l23.828 28.884H110.32v23.59H89.683v-23.59z" fill="#232D61"/><path fill="#E78026" d="M93.084 59.69L200 146.687v-9.917L93.25 49.906 71.176 66.663 0 41.998v8.142l72.552 25.14zm8.032 33.288l-14.81 16.456H8.856L0 117.344v10.312l11.794-10.53H89.73l12.883-14.313L200 160.66v-8.947z"/></svg>
